X: 20532
T: John McFadden's Favourite
R: reel
M: 4/4
K: Gmajor
|G2BG EGdB|GABd e~A3|DGLGF GuG (3Bcd|Lgedc (3Bcd LAF|
GALAG EGDB|G2SBd e~A3|DGLGF GABd|Lgedc BGuG2S||
~g3a (3bag af|gaLag e~a3|g2Sdg bgaf|Lgedc LB~g3|
g2Sga LagLgf|gaLag e~a3|g2Saf Lgfed|BdLgd eLgdB||
~G3B EGDB|G2SBD E~A3|DGLGF GuG (3Bcd|Lgedc (3Bcd LAF|
G2Sbg egdB|GABD E~A3|DGGF G2SBd|Lgedc BG uG2S||
~g3a LbgLaf|~g3a e~a3|g2Sdg bgaf|Lgedc LB~g3|
g2S ga LbgLaf|gaLag e~a3|gaLaf gfued|B2SLgd eLgdB||
GALAG EGdB|G3A E~A3|DGGF G2S (3Bcd|Lgedc (3Bcd LAF|
G2SLbg egdB|GABD E~A3|DGGF G2SBd|Lgedc BGuG2||
~g3a (3bag af|gaLag e~a3|g2Sdg bgaf|Lgedc LB~g3|
~g3a bgaf|g2Sag e~a3|g2Saf Lgfed|BdLgd eLgd2S||

